alphanet/Lisk/images/application/lisk.svg

<svg width="64" height="64" viewBox="0 0 64 64" fill="none" xmlns="http://www.w3.org/2000/svg">
<g clip-path="url(#clip0_4372_6838)">
<path d="M64 0H0V64H64V0Z" fill="#4070F4"/>
<path d="M26.8998 59.4299L34.0798 51.3599C34.1998 51.2299 34.0998 51.0199 33.9298 51.0199H26.0298C25.9698 51.0199 25.9198 50.9899 25.8798 50.9499L19.1698 43.4199C19.1098 43.3499 19.0998 43.2599 19.1498 43.1799L30.3498 23.9499C30.3898 23.8899 30.3898 23.8099 30.3498 23.7499L25.6798 15.7299C25.5998 15.5999 25.4098 15.5999 25.3298 15.7299L8.72976 44.2299C8.68976 44.3099 8.69976 44.3999 8.74976 44.4699L22.0698 59.4299C22.0698 59.4299 22.1598 59.4999 22.2198 59.4999H26.7298C26.7898 59.4999 26.8398 59.4799 26.8798 59.4299" fill="#F7F9FB"/>
<path d="M31.8201 4.59994L27.1501 12.6199C27.1101 12.6799 27.1101 12.7599 27.1501 12.8199L31.9901 21.1399L44.8301 43.1899C44.8701 43.2699 44.8701 43.3599 44.8101 43.4299L38.0401 51.0299L30.8001 59.1699C30.6801 59.2999 30.7801 59.5099 30.9501 59.5099H41.7501C41.8101 59.5099 41.8601 59.4899 41.9001 59.4399L55.2201 44.4799C55.2801 44.4099 55.2901 44.3199 55.2401 44.2399L32.1801 4.59994C32.1001 4.46994 31.9101 4.46994 31.8301 4.59994" fill="#F7F9FB"/>
</g>
<defs>
<clipPath id="clip0_4372_6838">
<rect width="64" height="64" fill="white"/>
</clipPath>
</defs>
</svg>

<?xml version="1.0" encoding="UTF-8"?><svg id="Layer_1" xmlns="http://www.w3.org/2000/svg" viewBox="0 0 64 64"><defs><style>.cls-1{fill:#f7f9fb;}.cls-2{fill:#4070f4;}</style></defs><rect class="cls-2" width="64" height="64"/><g><path class="cls-1" d="m26.9,59.43l7.18-8.07c.12-.13.02-.34-.15-.34h-7.9c-.06,0-.11-.03-.15-.07l-6.71-7.53c-.06-.07-.07-.16-.02-.24l11.2-19.23c.04-.06.04-.14,0-.2l-4.67-8.02c-.08-.13-.27-.13-.35,0l-16.6,28.5c-.04.08-.03.17.02.24l13.32,14.96s.09.07.15.07h4.51c.06,0,.11-.02.15-.07"/><path class="cls-1" d="m31.82,4.6l-4.67,8.02c-.04.06-.04.14,0,.2l4.84,8.32,12.84,22.05c.04.08.04.17-.02.24l-6.77,7.6h0l-7.24,8.14c-.12.13-.02.34.15.34h10.8c.06,0,.11-.02.15-.07l13.32-14.96c.06-.07.07-.16.02-.24L32.18,4.6c-.08-.13-.27-.13-.35,0"/></g></svg>
